X:195
T:Zodice,The. JGi.195
T:Zodiac,The,aka. JGi.195
M:3/8
L:1/8
Q:3/8=60
S:Joshua Gibbons MS,1823,Tealby,Lincs.
R:waltz
O:Tealby,Lincolnshire
Z:VMP/R.Greig, 2009
K:Bb
F|B>cB|FBd|ecA|B/A/B/c/ B|B>cB|FBd|ecA|B2:|
A/B/|cAF|dBG|ecA|fdB|cAF|dBF|ecA|B2||
b|bag|fdd|ecc|dBB|bag|fdd|ecA|B2:|
|:f|fdg|e2c|Acf|d2B|fdg|e2c|Aec|B2:|

